eject-circle-outline.svg

<svg fill="currentColor" viewBox="0 0 24 24"><path d="M12 2C6.5 2 2 6.5 2 12s4.5 10 10 10 10-4.5 10-10S17.5 2 12 2m0 18c-4.41 0-8-3.59-8-8s3.59-8 8-8 8 3.59 8 8-3.59 8-8 8m4.5-8L12 6l-4.5 6zm0 4h-9v-2h9z"/></svg>

<svg  viewBox="0 0 24 24" fill="currentColor"><path  d="M12 2C6.5 2 2 6.5 2 12S6.5 22 12 22 22 17.5 22 12 17.5 2 12 2M12 20C7.59 20 4 16.41 4 12S7.59 4 12 4 20 7.59 20 12 16.41 20 12 20M16.5 12L12 6L7.5 12H16.5M16.5 16H7.5V14H16.5V16Z"/></svg>
